svg/u25b6.svg

<svg viewBox="0 0 128 128" xmlns="http://www.w3.org/2000/svg">
  <g>
    <path d="M116.46,3.96h-104c-4.42,0-8,3.58-8,8v104c0,4.42,3.58,8,8,8h104c4.42,0,8-3.58,8-8v-104 C124.46,7.54,120.88,3.96,116.46,3.96z" fill="#F77E00"/>
    <path d="M110.16,3.96h-98.2c-4.13,0.03-7.47,3.37-7.5,7.5v97.9c-0.01,4.14,3.34,7.49,7.48,7.5 c0.01,0,0.01,0,0.02,0h98.1c4.14,0.01,7.49-3.34,7.5-7.48c0-0.01,0-0.01,0-0.02v-97.9c0.09-4.05-3.13-7.41-7.18-7.5 C110.31,3.96,110.23,3.96,110.16,3.96z" fill="#FF9800"/>
    <path d="M40.16,12.86c0-2.3-1.6-3-10.8-2.7 c-7.7,0.3-11.5,1.2-13.8,4s-2.9,8.5-3,15.3c0,4.8,0,9.3,2.5,9.3c3.4,0,3.4-7.9,6.2-12.3C26.66,17.76,40.16,15.86,40.16,12.86z" opacity="0.75" fill="#FFBD52" enable-background="new "/>
  </g>
  <path d="M43.7,62.21v-25.7c-0.03-1.25,0.96-2.28,2.21-2.31c0.42-0.01,0.83,0.1,1.19,0.31l43.5,25.7 c1.13,0.72,1.47,2.22,0.75,3.35c-0.19,0.3-0.45,0.55-0.75,0.75l-43.5,25.6c-1.08,0.63-2.46,0.27-3.09-0.81 c-0.21-0.36-0.32-0.77-0.31-1.19V62.21z" fill="#FAFAFA"/>
</svg>

<svg viewBox="0 0 128 128" xmlns="http://www.w3.org/2000/svg">
  <defs/>
  <path d="M116.46,3.96 L12.46,3.96 C8.04,3.96 4.46,7.54 4.46,11.96 L4.46,115.96 C4.46,120.38 8.04,123.96 12.46,123.96 L116.46,123.96 C120.88,123.96 124.46,120.38 124.46,115.96 L124.46,11.96 C124.46,7.54 120.88,3.96 116.46,3.96 Z" fill="#F77E00"/>
  <path d="M110.16,3.96 L11.96,3.96 C7.83,3.99 4.49,7.33 4.46,11.46 L4.46,109.36 C4.45,113.5 7.8,116.85 11.94,116.86 C11.95,116.86 11.95,116.86 11.96,116.86 L110.06,116.86 C114.2,116.87 117.55,113.52 117.56,109.38 C117.56,109.37 117.56,109.37 117.56,109.36 L117.56,11.46 C117.65,7.41 114.43,4.05 110.38,3.96 C110.31,3.96 110.23,3.96 110.16,3.96 Z" fill="#FF9800"/>
  <path d="M40.16,12.86 C40.16,10.56 38.56,9.86 29.36,10.16 C21.66,10.46 17.86,11.36 15.56,14.16 C13.26,16.96 12.66,22.66 12.56,29.46 C12.56,34.26 12.56,38.76 15.06,38.76 C18.46,38.76 18.46,30.86 21.26,26.46 C26.66,17.76 40.16,15.86 40.16,12.86 Z" fill="#FFBD52" opacity="0.75"/>
  <path d="M43.7,62.21 L43.7,36.51 C43.67,35.26 44.66,34.23 45.91,34.2 C46.33,34.19 46.74,34.3 47.1,34.51 L90.6,60.21 C91.73,60.93 92.07,62.43 91.35,63.56 C91.16,63.86 90.9,64.11 90.6,64.31 L47.1,89.91 C46.02,90.54 44.64,90.18 44.01,89.1 C43.8,88.74 43.69,88.33 43.7,87.91 L43.7,62.21 Z" fill="#FAFAFA"/>
</svg>
